images/usds.svg

<svg height="250" viewBox="0 0 250 250" width="250" xmlns="http://www.w3.org/2000/svg" xmlns:xlink="http://www.w3.org/1999/xlink"><linearGradient id="a" gradientUnits="userSpaceOnUse" x1="-299.357391375" x2="189.165664625" y1="587.6101685" y2="99.087127625"><stop offset=".84" stop-color="#8568c5"/><stop offset="1" stop-color="#783989"/></linearGradient><linearGradient id="b" gradientUnits="userSpaceOnUse" x1="532.741333" x2="110.441726625" y1="-236.74179075" y2="266.535308875"><stop offset=".8849" stop-color="#793e90"/><stop offset="1" stop-color="#783989"/></linearGradient><linearGradient id="c" gradientUnits="userSpaceOnUse" x1="-93.774360625" x2="198.6449585" y1="473.260223375" y2="-33.224876375"><stop offset=".557" stop-color="#8568c5"/><stop offset="1" stop-color="#783989"/></linearGradient><linearGradient id="d" gradientUnits="userSpaceOnUse" x1="97.087265" x2="153.525009125" y1="153.623580875" y2="97.1858215"><stop offset=".0666059" stop-color="#8568c5"/><stop offset=".278" stop-color="#8055ad"/><stop offset=".5176" stop-color="#7b4599"/><stop offset=".7583" stop-color="#793c8d"/><stop offset="1" stop-color="#783989"/></linearGradient><path d="m189.664062 189.664062c-17.277343 17.273438-40.238281 26.773438-64.664062 26.773438s-47.386719-9.511719-64.664062-26.773438c-11.035157-11.039062-19.085938-24.703124-23.296876-39.539062h-27.238281c11.675781 53.8125 59.988281 92.761719 115.199219 92.761719s103.523438-38.960938 115.199219-92.761719h-27.238281c-4.210938 14.835938-12.261719 28.5-23.296876 39.539062zm0 0" fill="url(#a)"/><path d="m215.925781 115.238281c.347657 3.25.511719 6.535157.511719 9.761719 0 3.238281-.175781 6.511719-.511719 9.761719h26.5625c.273438-3.300781.410157-6.585938.410157-9.761719s-.136719-6.460938-.410157-9.761719zm0 0" fill="url(#b)"/><path d="m33.5625 125c0-3.226562.175781-6.511719.511719-9.761719h-26.5625c-.273438 3.285157-.410157 6.574219-.410157 9.761719s.136719 6.476562.410157 9.761719h26.5625c-.335938-3.25-.511719-6.535157-.511719-9.761719zm0 0" fill="#8568c5"/><path d="m60.335938 60.335938c17.277343-17.261719 40.238281-26.773438 64.664062-26.773438s47.386719 9.511719 64.664062 26.789062c11.035157 11.023438 19.085938 24.6875 23.296876 39.523438h27.238281c-11.675781-53.8125-59.988281-92.761719-115.199219-92.761719s-103.523438 38.949219-115.199219 92.761719h27.238281c4.210938-14.835938 12.261719-28.488281 23.296876-39.539062zm0 0" fill="url(#c)"/><path d="m128.976562 176.886719h-7.351562c-1.710938 0-2.574219-.863281-2.574219-2.574219v-9.425781h-.863281c-6.199219 0-11.039062-1.773438-14.511719-5.324219-3.476562-3.550781-5.199219-8.460938-5.199219-14.75v-2.324219c0-1.714843.847657-2.574219 2.574219-2.574219h10.398438c1.714843 0 2.574219.859376 2.574219 2.574219v.847657c0 3.101562.613281 5.226562 1.839843 6.363281 1.222657 1.136719 3.460938 1.714843 6.738281 1.714843h4.898438c3.1875 0 5.398438-.613281 6.675781-1.839843 1.261719-1.222657 1.898438-3.511719 1.898438-6.847657v-1.839843c0-2.035157-.613281-3.625-1.835938-4.773438-1.226562-1.136719-2.652343-1.914062-4.289062-2.324219-1.460938-.328124-4.347657-.6875-8.625-1.101562-4.285157-.414062-7.488281-.914062-9.613281-1.523438-2.125-.613281-4.285157-1.652343-6.484376-3.125-4.578124-2.9375-6.851562-8.6875-6.851562-17.265624v-4.523438c0-6.449219 1.738281-11.398438 5.199219-14.875 3.464843-3.476562 8.351562-5.199219 14.625-5.199219h.863281v-9.675781c0-1.710938.863281-2.574219 2.574219-2.574219h7.351562c1.710938 0 2.574219.863281 2.574219 2.574219v9.675781h.25c5.800781 0 10.363281 1.800781 13.710938 5.386719 3.351562 3.585938 5.027343 8.488281 5.027343 14.6875v2.324219c0 1.714843-.863281 2.574219-2.574219 2.574219h-10.402343c-1.710938 0-2.574219-.859376-2.574219-2.574219v-.863281c0-3.097657-.585938-5.222657-1.773438-6.359376-1.1875-1.140624-3.453124-1.714843-6.800781-1.714843h-3.914062c-3.347657 0-5.613281.636719-6.800781 1.902343-1.1875 1.261719-1.773438 3.734376-1.773438 7.410157v2.449219c0 1.800781.613281 3.203124 1.835938 4.226562 1.226562 1.023438 2.613281 1.699219 4.164062 2.023438 1.800781.328124 4.835938.675781 9.125 1.039062s7.511719.898438 9.675781 1.585938c2.160157.6875 4.300781 1.777343 6.425781 3.25 4.324219 3.101562 6.484376 8.652343 6.484376 16.652343v4.648438c0 6.363281-1.773438 11.3125-5.324219 14.8125-3.550781 3.511719-8.386719 5.261719-14.511719 5.261719h-.25v9.425781c-.011719 1.699219-.875 2.5625-2.585938 2.5625zm0 0" fill="url(#d)"/></svg>

<svg xmlns="http://www.w3.org/2000/svg" xmlns:xlink="http://www.w3.org/1999/xlink" width="250px" height="250px" viewBox="0 0 250 250" version="1.1">
<defs>
<linearGradient id="linear0" gradientUnits="userSpaceOnUse" x1="-2394.859131" y1="4700.881348" x2="1513.325317" y2="792.697021" gradientTransform="matrix(0.125,0,0,0.125,0,0)">
<stop offset="0.84" style="stop-color:rgb(52.156866%,40.784314%,77.254903%);stop-opacity:1;"/>
<stop offset="1" style="stop-color:rgb(47.058824%,22.352941%,53.725493%);stop-opacity:1;"/>
</linearGradient>
<linearGradient id="linear1" gradientUnits="userSpaceOnUse" x1="4261.930664" y1="-1893.934326" x2="883.533813" y2="2132.282471" gradientTransform="matrix(0.125,0,0,0.125,0,0)">
<stop offset="0.8849" style="stop-color:rgb(47.450981%,24.313726%,56.470591%);stop-opacity:1;"/>
<stop offset="1" style="stop-color:rgb(47.058824%,22.352941%,53.725493%);stop-opacity:1;"/>
</linearGradient>
<linearGradient id="linear2" gradientUnits="userSpaceOnUse" x1="-750.194885" y1="3786.081787" x2="1589.159668" y2="-265.799011" gradientTransform="matrix(0.125,0,0,0.125,0,0)">
<stop offset="0.557" style="stop-color:rgb(52.156866%,40.784314%,77.254903%);stop-opacity:1;"/>
<stop offset="1" style="stop-color:rgb(47.058824%,22.352941%,53.725493%);stop-opacity:1;"/>
</linearGradient>
<linearGradient id="linear3" gradientUnits="userSpaceOnUse" x1="776.69812" y1="1228.988647" x2="1228.200073" y2="777.486572" gradientTransform="matrix(0.125,0,0,0.125,0,0)">
<stop offset="0.0666059" style="stop-color:rgb(52.156866%,40.784314%,77.254903%);stop-opacity:1;"/>
<stop offset="0.278" style="stop-color:rgb(50.196081%,33.333334%,67.843139%);stop-opacity:1;"/>
<stop offset="0.5176" style="stop-color:rgb(48.235294%,27.058825%,60.000002%);stop-opacity:1;"/>
<stop offset="0.7583" style="stop-color:rgb(47.450981%,23.529412%,55.29412%);stop-opacity:1;"/>
<stop offset="1" style="stop-color:rgb(47.058824%,22.352941%,53.725493%);stop-opacity:1;"/>
</linearGradient>
</defs>
<g id="surface1">
<path style=" stroke:none;fill-rule:nonzero;fill:url(#linear0);" d="M 189.664062 189.664062 C 172.386719 206.9375 149.425781 216.4375 125 216.4375 C 100.574219 216.4375 77.613281 206.925781 60.335938 189.664062 C 49.300781 178.625 41.25 164.960938 37.039062 150.125 L 9.800781 150.125 C 21.476562 203.9375 69.789062 242.886719 125 242.886719 C 180.210938 242.886719 228.523438 203.925781 240.199219 150.125 L 212.960938 150.125 C 208.75 164.960938 200.699219 178.625 189.664062 189.664062 Z M 189.664062 189.664062 "/>
<path style=" stroke:none;fill-rule:nonzero;fill:url(#linear1);" d="M 215.925781 115.238281 C 216.273438 118.488281 216.4375 121.773438 216.4375 125 C 216.4375 128.238281 216.261719 131.511719 215.925781 134.761719 L 242.488281 134.761719 C 242.761719 131.460938 242.898438 128.175781 242.898438 125 C 242.898438 121.824219 242.761719 118.539062 242.488281 115.238281 Z M 215.925781 115.238281 "/>
<path style=" stroke:none;fill-rule:nonzero;fill:rgb(52.156866%,40.784314%,77.254903%);fill-opacity:1;" d="M 33.5625 125 C 33.5625 121.773438 33.738281 118.488281 34.074219 115.238281 L 7.511719 115.238281 C 7.238281 118.523438 7.101562 121.8125 7.101562 125 C 7.101562 128.1875 7.238281 131.476562 7.511719 134.761719 L 34.074219 134.761719 C 33.738281 131.511719 33.5625 128.226562 33.5625 125 Z M 33.5625 125 "/>
<path style=" stroke:none;fill-rule:nonzero;fill:url(#linear2);" d="M 60.335938 60.335938 C 77.613281 43.074219 100.574219 33.5625 125 33.5625 C 149.425781 33.5625 172.386719 43.074219 189.664062 60.351562 C 200.699219 71.375 208.75 85.039062 212.960938 99.875 L 240.199219 99.875 C 228.523438 46.0625 180.210938 7.113281 125 7.113281 C 69.789062 7.113281 21.476562 46.0625 9.800781 99.875 L 37.039062 99.875 C 41.25 85.039062 49.300781 71.386719 60.335938 60.335938 Z M 60.335938 60.335938 "/>
<path style=" stroke:none;fill-rule:nonzero;fill:url(#linear3);" d="M 128.976562 176.886719 L 121.625 176.886719 C 119.914062 176.886719 119.050781 176.023438 119.050781 174.3125 L 119.050781 164.886719 L 118.1875 164.886719 C 111.988281 164.886719 107.148438 163.113281 103.675781 159.5625 C 100.199219 156.011719 98.476562 151.101562 98.476562 144.8125 L 98.476562 142.488281 C 98.476562 140.773438 99.324219 139.914062 101.050781 139.914062 L 111.449219 139.914062 C 113.164062 139.914062 114.023438 140.773438 114.023438 142.488281 L 114.023438 143.335938 C 114.023438 146.4375 114.636719 148.5625 115.863281 149.699219 C 117.085938 150.835938 119.324219 151.414062 122.601562 151.414062 L 127.5 151.414062 C 130.6875 151.414062 132.898438 150.800781 134.175781 149.574219 C 135.4375 148.351562 136.074219 146.0625 136.074219 142.726562 L 136.074219 140.886719 C 136.074219 138.851562 135.460938 137.261719 134.238281 136.113281 C 133.011719 134.976562 131.585938 134.199219 129.949219 133.789062 C 128.488281 133.460938 125.601562 133.101562 121.324219 132.6875 C 117.039062 132.273438 113.835938 131.773438 111.710938 131.164062 C 109.585938 130.550781 107.425781 129.511719 105.226562 128.039062 C 100.648438 125.101562 98.375 119.351562 98.375 110.773438 L 98.375 106.25 C 98.375 99.800781 100.113281 94.851562 103.574219 91.375 C 107.039062 87.898438 111.925781 86.175781 118.199219 86.175781 L 119.0625 86.175781 L 119.0625 76.5 C 119.0625 74.789062 119.925781 73.925781 121.636719 73.925781 L 128.988281 73.925781 C 130.699219 73.925781 131.5625 74.789062 131.5625 76.5 L 131.5625 86.175781 L 131.8125 86.175781 C 137.613281 86.175781 142.175781 87.976562 145.523438 91.5625 C 148.875 95.148438 150.550781 100.050781 150.550781 106.25 L 150.550781 108.574219 C 150.550781 110.289062 149.6875 111.148438 147.976562 111.148438 L 137.574219 111.148438 C 135.863281 111.148438 135 110.289062 135 108.574219 L 135 107.710938 C 135 104.613281 134.414062 102.488281 133.226562 101.351562 C 132.039062 100.210938 129.773438 99.636719 126.425781 99.636719 L 122.511719 99.636719 C 119.164062 99.636719 116.898438 100.273438 115.710938 101.539062 C 114.523438 102.800781 113.9375 105.273438 113.9375 108.949219 L 113.9375 111.398438 C 113.9375 113.199219 114.550781 114.601562 115.773438 115.625 C 117 116.648438 118.386719 117.324219 119.9375 117.648438 C 121.738281 117.976562 124.773438 118.324219 129.0625 118.6875 C 133.351562 119.050781 136.574219 119.585938 138.738281 120.273438 C 140.898438 120.960938 143.039062 122.050781 145.164062 123.523438 C 149.488281 126.625 151.648438 132.175781 151.648438 140.175781 L 151.648438 144.824219 C 151.648438 151.1875 149.875 156.136719 146.324219 159.636719 C 142.773438 163.148438 137.9375 164.898438 131.8125 164.898438 L 131.5625 164.898438 L 131.5625 174.324219 C 131.550781 176.023438 130.6875 176.886719 128.976562 176.886719 Z M 128.976562 176.886719 "/>
</g>
</svg>
